icons/moltin-icon.svg

<?xml version="1.0" encoding="UTF-8"?>
<svg width="256px" height="291px" viewBox="0 0 256 291" version="1.1" xmlns="http://www.w3.org/2000/svg" xmlns:xlink="http://www.w3.org/1999/xlink" preserveAspectRatio="xMidYMid">
    <defs>
        <linearGradient x1="38.0785947%" y1="8.52777764%" x2="53.2429642%" y2="60.7677321%" id="linearGradient-1">
            <stop stop-color="#E67417" offset="1.093%"></stop>
            <stop stop-color="#E62F17" offset="99.952%"></stop>
        </linearGradient>
        <linearGradient x1="49.9974855%" y1="0.659475043%" x2="49.9974855%" y2="97.2760076%" id="linearGradient-2">
            <stop stop-color="#F2BB30" offset="0%"></stop>
            <stop stop-color="#E67417" offset="30.905%"></stop>
            <stop stop-color="#E62F17" offset="100%"></stop>
        </linearGradient>
        <linearGradient x1="41.2588189%" y1="84.7879279%" x2="55.3187109%" y2="36.661925%" id="linearGradient-3">
            <stop stop-color="#FFFFFF" offset="0%"></stop>
            <stop stop-color="#FFFFFF" stop-opacity="0" offset="100%"></stop>
        </linearGradient>
    </defs>
    <g>
        <path d="M247.127994,71.95317 L132.111067,5.54883681 C129.566353,4.08299551 126.433647,4.08299551 123.888933,5.54883681 L8.87202178,71.95317 C6.32826642,73.4235213 4.76137718,76.1386516 4.76137718,79.0767843 L4.76137718,211.885451 C4.76137718,214.822658 6.32849066,217.536719 8.87202178,219.005607 L123.888933,285.409941 C126.433642,286.875801 129.566358,286.875801 132.111067,285.409941 L247.127994,219.005607 C249.671517,217.536713 251.238623,214.822653 251.238623,211.885451 L251.238623,79.0767843 C251.238623,76.1386556 249.671741,73.4235277 247.127994,71.95317 L247.127994,71.95317 Z" fill="#FFFFFF"></path>
        <path d="M248.500025,67.2448489 L135.505454,2.00767281 C130.860445,-0.669224269 125.14123,-0.669224269 120.496221,2.00767281 L7.50504665,67.241483 C2.86829152,69.9325851 0.0104038719,74.8844914 0,80.2455939 L0,210.713214 C0.00901482423,216.074022 2.8678266,221.025678 7.50589199,223.713929 L120.494531,288.947739 C125.138333,291.629143 130.859961,291.629143 135.503763,288.947739 L248.494953,223.713929 C253.132546,221.025317 255.990959,216.073794 256,210.713214 L256,80.2455939 C255.990204,74.8865335 253.134345,69.9360772 248.500025,67.2448489 Z M249.066262,210.713245 C249.066262,213.598673 247.52678,216.264891 245.028092,217.707893 L132.038593,282.941703 C129.53874,284.381725 126.461244,284.381725 123.961392,282.941703 L10.9719079,217.707893 C8.47321212,216.264897 6.93372248,213.598677 6.93372248,210.713245 L6.93372248,80.2456247 C6.93372248,77.359283 8.47299184,74.6920129 10.9719079,73.2475798 L123.961392,8.01376967 C126.46125,6.57376706 129.538735,6.57376706 132.038593,8.01376967 L245.028092,73.2475798 C247.527,74.6920191 249.066262,77.359287 249.066262,80.2456247 L249.066262,210.713245 Z" fill="#999999"></path>
        <g transform="translate(22.227545, 81.620000)">
                <path d="M4.6023518,126.725205 C1.76948656,125.089661 0.0243629173,122.06704 0.0243513217,118.795935 L0.0243513217,52.7326055 C-0.182813691,45.1441531 0.933145746,37.5775929 3.32221384,30.3720479 C7.16481982,20.0000929 14.7646014,9.85327995 29.829159,3.869073 C58.6938028,-7.59704436 87.2226114,7.90571779 103.339651,30.8874203 C116.872807,50.184685 124.771159,57.8571583 141.788398,70.8847377 C156.856804,82.4203276 204.113821,103.166798 211.261157,61.8434922 L211.261157,118.795981 C211.261157,122.067084 209.516034,125.089705 206.683172,126.725251 L110.220716,182.417883 C107.387858,184.053431 103.897635,184.053431 101.064777,182.417883 L4.6023518,126.725205 Z" fill="url(#linearGradient-1)"></path>
                <path d="M4.6023518,126.725205 L101.064807,182.417837 C103.897666,184.053385 107.387889,184.053385 110.220747,182.417837 L206.683203,126.725205 C209.516064,125.089659 211.261188,122.067038 211.261188,118.795935 L211.261188,61.8434462 C211.261188,19.6577274 164.207207,16.174901 139.956757,49.7025005 C120.735832,76.2764502 112.222161,85.7908359 86.4924596,95.1471607 C56.3803599,106.097016 29.3525084,100.159426 13.9815173,85.1225992 C5.19067427,76.622814 0.164984145,64.959834 0.0243513217,52.7325901 L0.0243513217,118.795919 C0.0243513217,122.06703 1.76948182,125.089658 4.6023518,126.725205 L4.6023518,126.725205 Z" fill="url(#linearGradient-2)"></path>
                <path d="M211.261142,61.8434462 C211.261142,19.6577734 164.207161,16.1748704 139.956588,49.7025005 C136.619682,54.3160344 133.60975,58.4051516 130.772105,62.0786902 C134.046606,64.8601686 137.64595,67.7134649 141.788352,70.8846917 C156.856804,82.4202663 204.11379,103.166767 211.261142,61.8434462 Z" fill="url(#linearGradient-3)" opacity="0.3"></path>
        </g>
	</g>
</svg>

<svg xmlns="http://www.w3.org/2000/svg" viewBox="0 0 256 290.959">
  <defs>
    <linearGradient id="a" x1="75.003" x2="104.872" y1="16.797" y2="119.694" gradientTransform="scale(1.07256 .93235)" gradientUnits="userSpaceOnUse">
      <stop offset="1.093%" stop-color="#E67417"/>
      <stop offset="99.952%" stop-color="#E62F17"/>
    </linearGradient>
    <linearGradient id="b" x1="90.946" x2="90.946" y1="32.652" y2="208.357" gradientTransform="scale(1.16154 .86092)" gradientUnits="userSpaceOnUse">
      <stop offset="0%" stop-color="#F2BB30"/>
      <stop offset="30.905%" stop-color="#E67417"/>
      <stop offset="100%" stop-color="#E62F17"/>
    </linearGradient>
    <linearGradient id="c" x1="140.799" x2="150.516" y1="90.133" y2="56.873" gradientTransform="scale(1.16465 .85863)" gradientUnits="userSpaceOnUse">
      <stop offset="0%" stop-color="#FFF"/>
      <stop offset="100%" stop-color="#FFF" stop-opacity="0"/>
    </linearGradient>
  </defs>
  <path fill="#fff" d="M247.128 71.953 132.111 5.55a8.236 8.236 0 0 0-8.222 0L8.872 71.953a8.228 8.228 0 0 0-4.11 7.124v132.808a8.222 8.222 0 0 0 4.11 7.12l115.017 66.405a8.236 8.236 0 0 0 8.222 0l115.017-66.404a8.222 8.222 0 0 0 4.11-7.12V79.075a8.228 8.228 0 0 0-4.11-7.123z"/>
  <path fill="#999" d="M248.5 67.245 135.505 2.008a15.03 15.03 0 0 0-15.009 0L7.505 67.24A15.07 15.07 0 0 0 0 80.246v130.467a15.056 15.056 0 0 0 7.506 13l112.989 65.235a15.008 15.008 0 0 0 15.009 0l112.991-65.234a15.057 15.057 0 0 0 7.505-13V80.245a15.066 15.066 0 0 0-7.5-13.001zm.566 143.468a8.077 8.077 0 0 1-4.038 6.995l-112.99 65.234a8.09 8.09 0 0 1-8.077 0l-112.99-65.234a8.077 8.077 0 0 1-4.037-6.995V80.246a8.083 8.083 0 0 1 4.038-6.998l112.99-65.234a8.091 8.091 0 0 1 8.077 0l112.99 65.234a8.083 8.083 0 0 1 4.037 6.998z"/>
  <path fill="url(#a)" d="M4.602 126.725a9.156 9.156 0 0 1-4.578-7.93V52.734a65.381 65.381 0 0 1 3.298-22.361C7.165 20 14.765 9.853 29.83 3.869c28.865-11.466 57.394 4.037 73.51 27.018 13.534 19.298 21.432 26.97 38.45 39.998 15.068 11.535 62.325 32.282 69.472-9.042v56.953a9.156 9.156 0 0 1-4.578 7.93l-96.462 55.692a9.156 9.156 0 0 1-9.156 0z" style="fill:url(#a)" transform="translate(22.228 81.62)"/>
  <path fill="url(#b)" d="m4.602 126.725 96.463 55.693a9.156 9.156 0 0 0 9.156 0l96.462-55.693a9.156 9.156 0 0 0 4.578-7.93V61.844c0-42.185-47.054-45.668-71.304-12.14-19.221 26.573-27.735 36.088-53.465 45.444-30.112 10.95-57.14 5.012-72.51-10.024A45.787 45.787 0 0 1 .024 52.733v66.063a9.156 9.156 0 0 0 4.578 7.93z" style="fill:url(#b)" transform="translate(22.228 81.62)"/>
  <path fill="url(#c)" d="M211.261 61.843c0-42.185-47.054-45.668-71.304-12.14-3.337 4.613-6.347 8.702-9.185 12.376 3.275 2.781 6.874 5.634 11.016 8.806 15.069 11.535 62.326 32.282 69.473-9.042z" opacity=".3" style="fill:url(#c)" transform="translate(22.228 81.62)"/>
</svg>
